svg/color/sbc.svg

<svg width="64" height="65" viewBox="0 0 64 65" fill="none" xmlns="http://www.w3.org/2000/svg">
<g clip-path="url(#clip0_11313_5423)">
<rect y="0.303711" width="64" height="64" rx="32" fill="white"/>
<path d="M32 64.3035C49.6731 64.3035 63.9999 49.9767 63.9999 32.3037C63.9999 14.6307 49.6731 0.303955 32 0.303955C14.3269 0.303955 0 14.6307 0 32.3037C0 49.9767 14.3269 64.3035 32 64.3035Z" fill="#6938EF"/>
<path d="M32 60.3035C47.4639 60.3035 59.9999 47.7676 59.9999 32.3037C59.9999 16.8399 47.4639 4.30396 32 4.30396C16.536 4.30396 4 16.8399 4 32.3037C4 47.7676 16.536 60.3035 32 60.3035Z" fill="#8760F2"/>
<path d="M32 56.3036C45.2548 56.3036 56 45.5585 56 32.3038C56 19.049 45.2548 8.30396 32 8.30396C18.7452 8.30396 8 19.049 8 32.3038C8 45.5585 18.7452 56.3036 32 56.3036Z" fill="#A588F5"/>
<path d="M32 52.3035C43.0457 52.3035 52 43.3493 52 32.3037C52 21.2581 43.0457 12.3038 32 12.3038C20.9543 12.3038 12 21.2581 12 32.3037C12 43.3493 20.9543 52.3035 32 52.3035Z" fill="#C3AFF9"/>
<path d="M32 48.3036C40.8365 48.3036 48 41.1402 48 32.3037C48 23.4672 40.8365 16.3038 32 16.3038C23.1634 16.3038 16 23.4672 16 32.3037C16 41.1402 23.1634 48.3036 32 48.3036Z" fill="#E1D7FC"/>
<path d="M32 44.3036C38.6274 44.3036 44 38.9311 44 32.3037C44 25.6764 38.6274 20.3038 32 20.3038C25.3726 20.3038 20 25.6764 20 32.3037C20 38.9311 25.3726 44.3036 32 44.3036Z" fill="white"/>
<path d="M32 40.3036C36.4183 40.3036 40 36.7219 40 32.3036C40 27.8854 36.4183 24.3037 32 24.3037C27.5817 24.3037 24 27.8854 24 32.3036C24 36.7219 27.5817 40.3036 32 40.3036Z" fill="#6938EF"/>
</g>
<rect x="0.5" y="0.803711" width="63" height="63" rx="31.5" stroke="#070B14" stroke-opacity="0.15"/>
<defs>
<clipPath id="clip0_11313_5423">
<rect y="0.303711" width="64" height="64" rx="32" fill="white"/>
</clipPath>
</defs>
</svg>

<svg xmlns="http://www.w3.org/2000/svg" width="64" height="65" fill="none" viewBox="0 0 64 65"><g clip-path="url(#sbc_svg-a)"><rect width="64" height="64" y=".304" fill="#fff" rx="32"/><path fill="#6938EF" d="M32 64.304c17.673 0 32-14.327 32-32s-14.327-32-32-32-32 14.327-32 32 14.327 32 32 32"/><path fill="#8760F2" d="M32 60.304c15.464 0 28-12.536 28-28s-12.536-28-28-28-28 12.536-28 28 12.536 28 28 28"/><path fill="#A588F5" d="M32 56.304c13.255 0 24-10.745 24-24s-10.745-24-24-24-24 10.745-24 24 10.745 24 24 24"/><path fill="#C3AFF9" d="M32 52.304c11.046 0 20-8.955 20-20s-8.954-20-20-20-20 8.954-20 20 8.954 20 20 20"/><path fill="#E1D7FC" d="M32 48.304c8.837 0 16-7.164 16-16s-7.163-16-16-16-16 7.163-16 16 7.163 16 16 16"/><path fill="#fff" d="M32 44.304c6.627 0 12-5.373 12-12 0-6.628-5.373-12-12-12s-12 5.372-12 12c0 6.627 5.373 12 12 12"/><path fill="#6938EF" d="M32 40.304a8 8 0 1 0 0-16 8 8 0 0 0 0 16"/></g><rect width="63" height="63" x=".5" y=".804" stroke="#070B14" stroke-opacity=".15" rx="31.5"/><defs><clipPath id="sbc_svg-a"><rect width="64" height="64" y=".304" fill="#fff" rx="32"/></clipPath></defs></svg>
